X:1
T:The Iron Division
M:2/4
L:1/8
C:G.S. McLennan
R:March
Z:Transcribed by Stephen Beitzel
K:D
[|: a/>f/ | {gef}ec {gcd}c{g}B/<{d}A/ | {gcd}ce {A}e{g}f/>g/ | a/>g/{fg}f/>e/ {ag}ac | {gcd}c{e}B {GdGe}Ba/>f |
{gef}ec {gcd}c{g}B/<{d}A/ | {gcd}ce {A}e{g}f/>g/ | a/>g/{fg}f/>e/ {ag}aA | {gcd}c{e}A {GAG}A :|]
[|: {g}c/>d/ | {gef}ea {fg}fa | {ef}ec {gcd}c{g}B/<{d}A/ | {Gdc}d-d/>f/ {gef}e/>c/{g}B/<{d}A/ | {gcd}c{e}B {GdGe}B{g}c/>d/ |
{gef}ea {fg}fa | {ef}ec {gef}e{g}f/>g/ | a/>g/{fg}f/>e/ {ag}aA | {gcd}c{e}A {GAG}A :|]
[|: {gcd}c/>B/ | {g}A-A/>{d}c/ {g}e-e/>f/ | {gef}ec {gef}ea | {g}ag/>f/ {gef}ec | {gcd}c{e}B {GdGe}B{gcd}c/>B/ |
{g}A-A/>{d}c/ {g}e-e/>f/ | {gef}ec {gef}e{g}f/>g/ | a/>g/{fg}f/>e/ {ag}aA | {gcd}c{e}A {GAG}A :|]
[|: {g}f/>g/ | a/>g/{fg}f/>e/ {ag}a-a/>f/ | {g}e/>f/{g}e/>d/ {gcd}ce | a/>g/{fg}f/>e/ {ag}ac | {gcd}c{e}B {GdGe}B{g}f/>g/ |
a/>g/{fg}f/>e/ {ag}a-a/>f/ | {g}e/>f/{g}e/>d/ {gcd}ce | a/>g/{fg}f/>e {ag}aA | {gcd}c{e}A {GAG}A :|]
